images/svg/git.svg

<svg width="120" height="60" viewBox="0 0 120 60" fill="none" xmlns="http://www.w3.org/2000/svg">
<path d="M72.0299 26.27C70.3299 26.27 69.0619 27.105 69.0619 29.115C69.0619 30.615 69.8969 31.68 71.9369 31.68C73.6669 31.68 74.8419 30.66 74.8419 29.052C74.8419 27.227 73.7919 26.27 72.0299 26.27ZM68.6299 40.46C68.2269 40.954 67.8259 41.48 67.8259 42.085C67.8259 43.32 69.4009 43.693 71.5659 43.693C73.3589 43.693 75.8009 43.568 75.8009 41.9C75.8009 40.91 74.6259 40.848 73.1409 40.755L68.6409 40.447L68.6299 40.46ZM77.7799 26.362C78.3349 27.075 78.9239 28.062 78.9239 29.485C78.9239 32.915 76.2239 34.925 72.3399 34.925C71.3399 34.925 70.4649 34.8 69.8969 34.647L68.8769 36.272L71.9069 36.457C77.2569 36.797 80.4069 36.953 80.4069 41.062C80.4069 44.618 77.2869 46.624 71.9069 46.624C66.3119 46.624 64.1799 45.202 64.1799 42.749C64.1799 41.359 64.7999 40.616 65.8799 39.595C64.8599 39.165 64.5199 38.391 64.5199 37.557C64.5199 36.877 64.8599 36.257 65.4169 35.682L67.3329 33.827C65.8179 33.087 64.6729 31.477 64.6729 29.202C64.6729 25.647 67.0229 23.206 71.7529 23.206C73.0829 23.206 73.8869 23.329 74.5979 23.516H80.6259V26.143L77.7809 26.359M86.0629 20.744C84.3129 20.744 83.2809 19.724 83.2809 17.96C83.2809 16.196 84.3009 15.24 86.0629 15.24C87.8559 15.24 88.8759 16.2 88.8759 17.96C88.8759 19.72 87.8549 20.744 86.0629 20.744ZM82.0629 39.322V36.882L83.6409 36.666C84.0729 36.604 84.1359 36.511 84.1359 36.046V26.96C84.1359 26.62 84.0429 26.404 83.7329 26.31L82.0629 25.723L82.4029 23.221H88.8029V36.051C88.8029 36.546 88.8329 36.607 89.2979 36.671L90.8729 36.887V39.325H82.0599M103.11 38.125C101.78 38.775 99.8319 39.375 98.0699 39.375C94.3899 39.375 92.9999 37.893 92.9999 34.398V26.298C92.9999 26.113 92.9999 25.988 92.7499 25.988H90.5999V23.238C93.3199 22.938 94.4029 21.568 94.7429 18.198H97.6799V22.588C97.6799 22.803 97.6799 22.898 97.9279 22.898H102.288V25.988H97.6699V33.363C97.6699 35.188 98.1039 35.898 99.7699 35.898C100.636 35.898 101.52 35.682 102.274 35.404L103.109 38.124" fill="white" fill-opacity="0.8"/>
<path d="M50.67 29.25L32.138 10.72C31.072 9.65299 29.341 9.65299 28.273 10.72L24.426 14.568L29.306 19.448C30.441 19.065 31.741 19.323 32.643 20.225C33.0737 20.6564 33.3744 21.2002 33.5107 21.7943C33.6471 22.3885 33.6136 23.009 33.414 23.585L38.118 28.289C39.243 27.897 40.5681 28.152 41.4781 29.059C41.8824 29.4624 42.1732 29.9653 42.3213 30.517C42.4694 31.0686 42.4694 31.6496 42.3215 32.2013C42.1736 32.753 41.8828 33.2559 41.4786 33.6595C41.0744 34.063 40.571 34.3529 40.019 34.5C39.4677 34.6479 38.8871 34.6479 38.3357 34.5001C37.7843 34.3523 37.2815 34.0618 36.878 33.658C35.923 32.702 35.688 31.298 36.171 30.121L31.796 25.746V37.291C32.096 37.445 32.398 37.648 32.656 37.906C33.926 39.176 33.926 41.234 32.656 42.506C32.3542 42.8082 31.9958 43.0479 31.6012 43.2115C31.2066 43.3751 30.7837 43.4593 30.3565 43.4593C29.9294 43.4593 29.5065 43.3751 29.1119 43.2115C28.7173 43.0479 28.3589 42.8082 28.057 42.506C26.787 41.233 26.787 39.176 28.057 37.906C28.3618 37.6015 28.7237 37.3602 29.122 37.196V25.546C28.747 25.386 28.372 25.152 28.057 24.846C27.6006 24.3899 27.2903 23.8082 27.1657 23.1751C27.041 22.542 27.1076 21.8861 27.357 21.291L22.545 16.478L9.83005 29.163C9.31893 29.6765 9.03198 30.3715 9.03198 31.096C9.03198 31.8205 9.31893 32.5155 9.83005 33.029L28.363 51.559C29.429 52.626 31.16 52.626 32.228 51.559L50.67 33.116C51.1812 32.6025 51.4681 31.9075 51.4681 31.183C51.4681 30.4585 51.1812 29.7635 50.67 29.25Z" fill="#F03C2E"/>
</svg>

<svg xmlns="http://www.w3.org/2000/svg" width="120" height="60"><path d="M72.03 26.27c-1.7 0-2.968.835-2.968 2.845 0 1.5.835 2.565 2.875 2.565 1.73 0 2.905-1.02 2.905-2.628 0-1.825-1.05-2.782-2.812-2.782zm-3.4 14.19c-.403.494-.804 1.02-.804 1.625 0 1.235 1.575 1.608 3.74 1.608 1.793 0 4.235-.125 4.235-1.793 0-.99-1.175-1.052-2.66-1.145l-4.5-.308zm9.15-14.098c.555.713 1.144 1.7 1.144 3.123 0 3.43-2.7 5.44-6.584 5.44-1 0-1.875-.125-2.443-.278l-1.02 1.625 3.03.185c5.35.34 8.5.496 8.5 4.605 0 3.556-3.12 5.562-8.5 5.562-5.595 0-7.727-1.422-7.727-3.875 0-1.39.62-2.133 1.7-3.154-1.02-.43-1.36-1.204-1.36-2.038 0-.68.34-1.3.897-1.875l1.916-1.855c-1.515-.74-2.66-2.35-2.66-4.625 0-3.555 2.35-5.996 7.08-5.996 1.33 0 2.134.123 2.845.31h6.028v2.627l-2.845.216m8.282-5.615c-1.75 0-2.782-1.02-2.782-2.784s1.02-2.72 2.782-2.72c1.793 0 2.813.96 2.813 2.72s-1.02 2.784-2.812 2.784zm-4 18.578v-2.44l1.578-.216c.432-.062.495-.155.495-.62V26.96c0-.34-.093-.556-.403-.65l-1.67-.587.34-2.502h6.4v12.83c0 .495.03.556.495.62l1.575.216v2.438H82.06m21.05-1.2c-1.33.65-3.278 1.25-5.04 1.25-3.68 0-5.07-1.482-5.07-4.977v-8.1c0-.185 0-.31-.25-.31H90.6v-2.75c2.72-.3 3.803-1.67 4.143-5.04h2.937v4.39c0 .215 0 .31.248.31h4.36v3.09H97.67v7.375c0 1.825.434 2.535 2.1 2.535.866 0 1.75-.216 2.504-.494l.835 2.72" fill="#362701"/><path d="M50.67 29.25L32.138 10.72c-1.066-1.067-2.797-1.067-3.865 0l-3.847 3.848 4.88 4.88c1.135-.383 2.435-.125 3.337.777a3.25 3.25 0 0 1 .771 3.36l4.704 4.704c1.125-.392 2.45-.137 3.36.77a3.25 3.25 0 0 1-1.459 5.441 3.25 3.25 0 0 1-3.141-.842c-.955-.956-1.19-2.36-.707-3.537l-4.375-4.375v11.545c.3.154.602.357.86.615 1.27 1.27 1.27 3.328 0 4.6a3.25 3.25 0 0 1-4.599 0c-1.27-1.273-1.27-3.33 0-4.6a3.27 3.27 0 0 1 1.065-.71V25.546c-.375-.16-.75-.394-1.065-.7a3.25 3.25 0 0 1-.7-3.555l-4.812-4.813L9.83 29.163a2.74 2.74 0 0 0 0 3.866l18.533 18.53c1.066 1.067 2.797 1.067 3.865 0L50.67 33.116a2.74 2.74 0 0 0 0-3.866" fill="#f03c2e"/></svg>
